X:1
T:Christ Is King
T:Christ Is King
T:Hart Pease Danks
T:Charlotte B. Merritt, 1889
T:Public Domain Courtesy of the Cyber Hymnal™
C:Hart Pease Danks
Z:Public Domain
Z:Courtesy of the Cyber Hymnal™
%%score ( 1 2 ) ( 3 4 )
L:1/8
Q:1/4=80
M:2/4
K:D
V:1 treble 
V:2 treble 
V:3 bass 
V:4 bass 
V:1
 [FA]>[GB] [FA][Bd] | [Ac][GB] [FA] z | [GB][FA] [DF]D | [DF]2 [CE] z | [DF]>[EG] [FA][FA] | %5
w: 1.~Lit- tle child- ren,|come and learn,|Learn the sweet old|sto- ry;|Christ was once a|
w: 2.~Stars and an- gels|sang a- loud,|“Peace on earth,” and|glo- ry|To the God who|
w: 3.~Stars and an- gels|sing a- gain,|“Tell the glad- some|sto- ry!”|An- swer to the|
 [GB][Ac] [Bd]2 | [FA][DF] D[DF] | [CE]2 D z ||"^Refrain" [CE][EG] [EG] z | [DF][FA] [FA] z | %10
w: child like you,|Now is King of|glo- ry.|||
w: from a- bove|Sent this won- drous|sto- ry.|Ring, bells ring,|Christ is King,|
w: joy- ous bells,|Christ is King of|glo- ry.|||
 [GB][FA] [Fd][DF] | [DF]2 [CE] z | [DF]>[EG] [FA][FA] | [GB][Ac] !fermata![Bd]2 | [FA][DF] D[DF] | %15
w: |||||
w: Christ is King of|glo- ry;|Christ was born in|Beth- le- hem,|Christ, the King of|
w: |||||
 [CE]2 D2 |] %16
w: |
w: glo- ry.|
w: |
V:2
 x4 | x4 | x3 D | x4 | x4 | x4 | x2 D x | x2 D x || x4 | x4 | x4 | x4 | x4 | x4 | x2 D x | x2 D2 |] %16
V:3
 [D,D]>[D,D] [D,D][D,D] | [D,D][D,D] [D,D] z | [D,D][D,D] [D,A,][D,F,] | [A,,A,]2 [A,,A,] z | %4
 [D,A,]>[D,A,] [D,A,][D,D] | [G,D][G,D] [G,D]2 | [A,D]A, [F,A,][D,A,] | [A,,G,]2 [D,F,] z || %8
 [A,,A,][A,,A,] [A,,A,] z | [D,A,][D,D] [D,D] z | [D,D][D,D] [D,A,][D,A,] | [A,,A,]2 [A,,A,] z | %12
 [D,A,]>[D,A,] [D,A,][D,D] | [G,D][G,D] [G,D]2 | [A,D]A, [F,A,][D,A,] | [A,,G,]2 [D,F,]2 |] %16
V:4
 x4 | x4 | x4 | x4 | x4 | x4 | x A, x2 | x4 || x4 | x4 | x4 | x4 | x4 | x4 | x A, x2 | x4 |] %16

